X: 1
T: Ripna Maca
O: Bulgaria
M: 7/8
L: 1/8
K: Bb
"A"|: "Eb"ABB BA/B/ AG | GAA AG/A/ GF | "F7"~FFE DE FE |1,3 "Bb"~DDB, DE FG :|2,4 "Bb"~DDB, Dz z2 :|
"B"|: "Eb"FGG GF/G/ FE | "Bb"DDB, DE FE | "Eb"FGG GF/G/ FE |1,3 "Bb"DDB, DD DB, :|2,4 "Bb"DDB, Dz z2 :|
"C"|: "Eb"FGG GF/G/ FE | "Bb"DDB, DE FB, | FB,D ~F2 ED |1,3 "F7"CDE "Bb"DD DB, :|2,4 "F7"CDE "Bb"Dz z2 :|
"D"|: "Bb"FB,D ~F2 ED | "F7"CDE "Bb"FF FB, | "Bb"FB,D ~F2 ED |1,3 "F7"CDE "Bb"DD DB, :|2,4 "F7"CDE "Bb"Dz !_fine!z2 :|
"E"|: "Cm"GFF FE ED | "Bb"CDB, "Cm"CD ED | GFF FE ED | "Bb"CDB, "Cm"CC Cz :| y8 y8 y4
"F"|: "Bb"FB,E F2 ~ED | "Cm"CDB, CD ED | "Bb"FB,E F2 ~ED |1,3 "Cm"C_DB, CC CB, :|2,4 "Cm"C_DB, CC Cz |]
"G"|: "Bb"A,B,B, DE ED | D^CD =EF GF | FF,B, DE ED |1,3 D^CD FF, DF, :|2,4 D^CD B,z z2 :|
"H"|: "Bb"FF,B, DE ED | D^CD =EF GF | FF,B, DE ED |1,3 D^CD FF, DF, :|2,4 D^CD B,z z2 :|
"I"|: "Ebm"ABc B_A/B/ AG | "Bb"_AGF =EF FB, |1,3 DED =EFFB, | _AGF G=E FB, :|2,4 DEC FEED | D^CD B,z z2 :|
"J"|: "Ebm"EDC "Bb"DE FB, | "Eb"EDC "Bb"DD DB, | "Eb"EDC "Bb"DE FB, |1,3 "F7"EDC "Bb"A,B, B,F, :|2,4 "F7"EDC "Bb"B,z !_d.C.!z2 :|
